usr/share/icons/biglinux-icons-material/scalable/mimetypes/application-x-archive.svg

<svg width="24" height="24" viewBox="0 0 24 24" fill="none" xmlns="http://www.w3.org/2000/svg">
<rect x="1" y="1" width="22" height="22" rx="6.6" fill="url(#paint0_radial_3_85)"/>
<path d="M7.05 15.3V18.8751C7.05 19.0274 7.17265 19.1501 7.325 19.1501H8.975C9.12735 19.1501 9.25 19.0274 9.25 18.8751V15.3H7.05ZM7.6 17.5H8.7V18.6H7.6V17.5Z" fill="#85613E"/>
<path d="M8.15089 1.00009V2.10009H9.25089V1.00009H8.15089ZM8.15089 2.10009H7.0509V3.20009H8.15089V2.10009ZM8.15089 3.20009V4.30009H9.25089V3.20009H8.15089ZM8.15089 4.30009H7.0509V5.40009H8.15089V4.30009ZM8.15089 5.40009V6.50009H9.25089V5.40009H8.15089ZM8.15089 6.50009H7.0509V7.60009H8.15089V6.50009ZM8.15089 7.60009V8.70009H9.25089V7.60009H8.15089ZM8.15089 8.70009H7.0509V9.80009H8.15089V8.70009ZM8.15089 9.80009V10.9001H9.25089V9.80009H8.15089ZM8.15089 10.9001H7.0509V12.0001H8.15089V10.9001ZM8.15089 12.0001V13.1001H9.25089V12.0001H8.15089ZM8.15089 13.1001H7.0509V14.2001H8.15089V13.1001ZM8.15089 14.2001V15.3001H9.25089V14.2001H8.15089Z" fill="#85613E"/>
<defs>
<radialGradient id="paint0_radial_3_85" cx="0" cy="0" r="1" gradientUnits="userSpaceOnUse" gradientTransform="translate(17.5 1) rotate(116.565) scale(24.5967)">
<stop stop-color="#DDB78F"/>
<stop offset="1" stop-color="#CB9153"/>
</radialGradient>
</defs>
</svg>

<svg xmlns="http://www.w3.org/2000/svg" width="24" height="24" fill="none"><rect width="22" height="22" x="1" y="1" fill="url(#a)" rx="6.6"/><path fill="#85613E" d="M7.05 15.3v3.575c0 .152.123.275.275.275h1.65a.274.274 0 0 0 .275-.275V15.3h-2.2Zm.55 2.2h1.1v1.1H7.6v-1.1ZM8.15 1v1.1h1.1V1h-1.1Zm0 1.1h-1.1v1.1h1.1V2.1Zm0 1.1v1.1h1.1V3.2h-1.1Zm0 1.1h-1.1v1.1h1.1V4.3Zm0 1.1v1.1h1.1V5.4h-1.1Zm0 1.1h-1.1v1.1h1.1V6.5Zm0 1.1v1.1h1.1V7.6h-1.1Zm0 1.1h-1.1v1.1h1.1V8.7Zm0 1.1v1.1h1.1V9.8h-1.1Zm0 1.1h-1.1V12h1.1v-1.1Zm0 1.1v1.1h1.1V12h-1.1Zm0 1.1h-1.1v1.1h1.1v-1.1Zm0 1.1v1.1h1.1v-1.1h-1.1Z"/><defs><radialGradient id="a" cx="0" cy="0" r="1" gradientTransform="rotate(116.565 8.441 5.908) scale(24.5967)" gradientUnits="userSpaceOnUse"><stop stop-color="#DDB78F"/><stop offset="1" stop-color="#CB9153"/></radialGradient></defs></svg>
